!!!OTL: 2005. Sieben Fragen.
!!!ARE: Europa, Mitteleuropa, Deutschland, Westfalen, Paderborn
!!!SCT: E2005
!!!TXL: @@DE
!!!YEM: Copyright 1995, estate of Helmut Schaffrath.
**kern	**text
*ICvox	*
*M4/4	*
*met(c)	*
*k[b-]	*
*F:	*
!LO:TX:a:t=Langsam.	!
!LO:TX:a:t=Aus dem Paderbornſchen.	!
{8fL	1._Wer
8aJ	.
=1	=1
4cc	weiß,
4cc	wo-
4cc	-raus
8ddL	das
8b-J	.
=2	=2
8b-qq	.
4a	Brünn-
4a	-lein
4a;}	quillt,
{4a	da-
=3	=3
4g	-raus
4a	wir
8ccL	trin-
8b-J	.
4a	-ken
=4	=4
2a	wer-
4g;}	-den?
{8fL	2._Wer
8aJ	.
=5	=5
4cc	weiß,
4cc	wo
4cc	noch
8ddL	das
8b-J	.
=6	=6
8b-qq	.
4a	Schäf-
4a	-lein
4a;}	geht,
{4a	das
=7	=7
4g	für
4a	uns
8ccL	Wol-
8b-J	.
4a	-le
=8	=8
2a	trä-
4g;}	-get?
{8fL	3._Wer
8aJ	.
=9	=9
4cc	weiß,
4cc	wo-
4cc	-raus
8ddL	das
8b-J	.
=10	=10
8b-qq	.
4a	Körn-
4a	-lein
4a;}	wächſt,
{4a	das
=11	=11
4g	uns
4a	ʒur
8ccL	Nah-
8b-J	.
4a	-rung
=12	=12
2a	die-
4g;}	-net?
{8fL	4._Wer
8aJ	.
=13	=13
4cc	weiß,
4cc	wer
4cc	uns
8ddL	den
8b-J	.
=14	=14
8b-qq	.
4a	Tiſch
4a	noch
4a;}	deckt,
{4a	der
=15	=15
4g	un-
4a	-ſern
8ccL	Kör-
8b-J	.
4a	-per
=16	=16
2a	wei-
4g;}	-det?
{8fL	5._Wer
8aJ	.
=17	=17
4cc	weiß,
4cc	wer
4cc	uns
8ddL	den
8b-J	.
=18	=18
8b-qq	.
4a	Weg
4a	noch
4a;}	ʒeigt,
{4a	da-
=19	=19
4g	-rauf
4a	wir
8ccL	wan-
8b-J	.
4a	-dern
=20	=20
2a	müſ-
4g;}	-ſen?
{8fL	6._Wer
8aJ	.
=21	=21
4cc	weiß,
4cc	wo
4cc	wohl
8ddL	das
8b-J	.
=22	=22
8b-qq	.
4a	Bett-
4a	-lein
4a;}	ſteht,
{4a	da-
=23	=23
4g	-rin
4a	mich
8ccL	Gott
8b-J	.
4a	ein-
=24	=24
2a	-le-
4g;}	-get?
{8fL	7._Wer
8aJ	.
=25	=25
4cc	weiß,
4cc	wannehr
4cc	.
8ddL	der
8b-J	.
=26	=26
8b-qq	.
4a	Tod
4a	wohl
4a;}	kömmt,
{4a	der
=27	=27
4g	uns
4a	ʒum
8ccL	Rich-
8b-J	.
4a	-ter
=28	=28
2a	füh-
4g;}	-ret?
{4f	8._Ach
=29	=29
4.e	treu-
8g	-er
4.b-/	Va-
8g	-ter,
=30	=30
4f	das
4a	weißt
4cc;}	du,
{4a	dir
=31	=31
4.b-	iſt
8dd	ja
4.dd	nichts
8b-	ver-
=32	=32
2b-	-bor-
4a;}	-gen.
{4f	9._Und
=33	=33
4.e	wenns
8g	auch
4.b-/	heu-
8g	-te
=34	=34
4f	nicht
4a	ge-
4cc;}	-ſchieht,
{4a	ge-
=35	=35
4.b-	-ſchieht
8dd	es
4.dd	doch
8b-	wohl
=36	=36
2b-	mor-
4a;}	-gen.
{4f	10._Jhr
=37	=37
4.e	Sor-
8g	-gen
4.b-/	weicht,
8g	laßt
=38	=38
4f	mich
4a	in
4cc;}	Ruh,
{4a	denn
=39	=39
4.b-	Gott
8dd	will
4.dd	für
8b-	uns
=40	=40
2b-	ſor-
4a;}	-gen!
==	==
!!!AGN: geistlich, Lob - Lied
!!!ONB: ESAC (Essen Associative Code) Database: ERK3
!!!AMT: simple quadruple
!!!AIN: vox
!!!EED: Helmut Schaffrath
!!!EEV: 1.0
!!!GTL: Geistliche Lieder. 2. Gottesglaube und Gottesverehrung in Liedern: Bitt-, Lob-, Dank- und Trostlieder, nebst einigen Lehrgesaengen.
!!!URL-scan: https://rosdok.uni-rostock.de/mcrviewer/recordIdentifier/rosdok_ppn745177999/iview2/phys_0714.iview2?x=187.54249976177812&y=454.15949084656313&scale=0.7014306698522891&rotation=0&layout=singlePageLayout
!!!ENC: Anna Maria Matuszewska
!!!EEV: 2025/10/01
*-	*-
